LucasHints/Assets.xcassets/glyphs/building/restaurant.imageset/restaurant.svg

<svg enable-background="new 0 0 122.88 116.67" viewBox="0 0 122.88 116.67" xmlns="http://www.w3.org/2000/svg"><path clip-rule="evenodd" d="m61.03 0c10.91 0 20.57 5.31 26.56 13.48h12.59c2.26 0 2.99 1.32 3.8 2.78v.01c.09.16.18.33.33.57l18.09 28.81c.33.53.48 1.08.48 1.63 0 .73-.26 1.4-.7 1.99-.29.39-.68.75-1.11 1.04l-.14.1c-.79.5-1.77.81-2.66.81h-2.48v-.02 63.39c0 1.15-.93 2.08-2.08 2.08h-37.99-28.55-37.99c-1.15 0-2.08-.93-2.08-2.08v-63.39h-2.49c-.89 0-1.87-.32-2.66-.81-.48-.3-.92-.69-1.25-1.13-.44-.59-.7-1.27-.7-1.99 0-.55.15-1.1.48-1.63l18.09-28.81c.11-.17.22-.38.33-.58.81-1.45 1.54-2.77 3.8-2.77h11.77c5.99-8.17 15.65-13.48 26.56-13.48zm21.77 85.01h13.95c.14-4.21-2.34-6.59-5.25-7.19v-3.39h12.31v38.08h-12.06v-9.13h5.8v-3.96h-15.54v3.96h5.8v9.13h-18.73v-9.13h5.8v-3.96h-15.54v3.96h5.81v9.13h-12.07v-38.08h12.31v3.48c-2.81.74-5.23 3.12-5.26 7.09h13.95c.15-4.21-2.34-6.58-5.25-7.19v-3.39h19.22v3.48c-2.8.76-5.22 3.14-5.25 7.11zm-49.51 6.34h1.8c.29 0 .53.24.53.53v6.29c0 .29-.24.53-.53.53h-1.8c-.29 0-.53-.24-.53-.53v-6.29c.01-.3.24-.53.53-.53zm56.9-73.71c2.4 4.57 3.76 9.77 3.76 15.28 0 5.05-1.14 9.84-3.18 14.12h22.94 4.57c.03 0 .07 0 .11-.01l-17.58-27.99c-.13-.2-.29-.49-.44-.77l-.04-.08c-.09-.18-.15-.36-.18-.55zm-1.78 33.56c-5.9 8.83-15.96 14.64-27.38 14.64-11.41 0-21.47-5.81-27.38-14.64h-22.39v61.31h4.4v-41.02h1.48 25.19v41.02h7.8v-41.03h1.47 55.16v41.03h4.87v-61.31zm-57.12-4.16c-2.04-4.28-3.18-9.07-3.18-14.12 0-5.52 1.36-10.71 3.76-15.28h-9.17c-.17 0 0 .3-.18.63-.14.25-.28.5-.45.77l-17.57 27.99c.04.01.08.01.11.01h4.57zm8.07 27.39h-20.74v38.08h20.74zm11.38-27.91 6.6-8 3.02 3.85-5.82 7.4c-2.23 2.83-6.35-.16-3.8-3.25zm7.71-18.22c.63-2.05.34-3.8-2.02-6.4l-5.77-6.94c-.82-.96-2.75.45-1.94 1.62l4.61 5.69c.87 1.06-.75 2.46-1.65 1.37l-4.77-5.88c-.89-1.02-2.73.33-1.8 1.49 1.34 1.62 3.43 4.26 4.77 5.88.93.95-.48 2.35-1.41 1.17l-4.74-5.84c-.7-.76-1.83-.29-2.13.6-.32.94.47 1.63 1.02 2.33l5.29 6.83c1.64 1.9 3.48 3.03 5.61 2.39.33-.1.73-.3 1.16-.56l14.21 18.34c.76.99 2.24 1.09 3.2.3l.22-.18c1.08-.9 1.25-2.54.33-3.6l-15.06-17.31c.44-.48.76-.95.87-1.3zm4.02 4 2.34-2.84c-3.01-7.46 8.14-17.4 13.55-12.83 6.57 5.56-3.19 18.95-10.05 15.64l-2.77 3.52z" fill-rule="evenodd"/></svg>

<?xml version="1.0" encoding="utf-8"?><svg version="1.1" id="Layer_1" xmlns="http://www.w3.org/2000/svg" xmlns:xlink="http://www.w3.org/1999/xlink" x="0px" y="0px" viewBox="0 0 122.88 116.67" style="enable-background:new 0 0 122.88 116.67" xml:space="preserve"><style type="text/css"><![CDATA[
	.st0{fill-rule:evenodd;clip-rule:evenodd;}
]]></style><g><path class="st0" d="M61.03,0C71.94,0,81.6,5.31,87.59,13.48h12.59c2.26,0,2.99,1.32,3.8,2.78v0.01c0.09,0.16,0.18,0.33,0.33,0.57 l18.09,28.81c0.33,0.53,0.48,1.08,0.48,1.63c0,0.73-0.26,1.4-0.7,1.99c-0.29,0.39-0.68,0.75-1.11,1.04l-0.14,0.1 c-0.79,0.5-1.77,0.81-2.66,0.81h-2.48V51.2v63.39c0,1.15-0.93,2.08-2.08,2.08H75.72H47.17H9.18c-1.15,0-2.08-0.93-2.08-2.08V51.2 H4.61c-0.89,0-1.87-0.32-2.66-0.81c-0.48-0.3-0.92-0.69-1.25-1.13C0.26,48.67,0,47.99,0,47.27c0-0.55,0.15-1.1,0.48-1.63 l18.09-28.81c0.11-0.17,0.22-0.38,0.33-0.58c0.81-1.45,1.54-2.77,3.8-2.77h11.77C40.46,5.31,50.12,0,61.03,0L61.03,0z M82.8,85.01 h13.95c0.14-4.21-2.34-6.59-5.25-7.19v-3.39h12.31v38.08H91.75v-9.13h5.8v-3.96H82.01v3.96h5.8v9.13H69.08v-9.13h5.8v-3.96H59.34 v3.96h5.81v9.13H53.08V74.43h12.31v3.48c-2.81,0.74-5.23,3.12-5.26,7.09h13.95c0.15-4.21-2.34-6.58-5.25-7.19v-3.39h19.22v3.48 C85.25,78.66,82.83,81.04,82.8,85.01L82.8,85.01z M33.29,91.35h1.8c0.29,0,0.53,0.24,0.53,0.53v6.29c0,0.29-0.24,0.53-0.53,0.53 h-1.8c-0.29,0-0.53-0.24-0.53-0.53v-6.29C32.77,91.58,33,91.35,33.29,91.35L33.29,91.35z M90.19,17.64 c2.4,4.57,3.76,9.77,3.76,15.28c0,5.05-1.14,9.84-3.18,14.12h22.94h4.57c0.03,0,0.07,0,0.11-0.01l-17.58-27.99 c-0.13-0.2-0.29-0.49-0.44-0.77l0,0l-0.04-0.08c-0.09-0.18-0.15-0.36-0.18-0.55H90.19L90.19,17.64z M88.41,51.2 c-5.9,8.83-15.96,14.64-27.38,14.64c-11.41,0-21.47-5.81-27.38-14.64H11.26v61.31h4.4V71.49h1.48h25.19v41.02h7.8V71.48h1.47h55.16 v41.03h4.87V51.2H88.41L88.41,51.2z M31.29,47.04c-2.04-4.28-3.18-9.07-3.18-14.12c0-5.52,1.36-10.71,3.76-15.28H22.7 c-0.17,0,0,0.3-0.18,0.63c-0.14,0.25-0.28,0.5-0.45,0.77L4.5,47.03c0.04,0.01,0.08,0.01,0.11,0.01h4.57H31.29L31.29,47.04z M39.36,74.43H18.62v38.08h20.74V74.43L39.36,74.43z M50.74,46.52l6.6-8l3.02,3.85l-5.82,7.4C52.31,52.6,48.19,49.61,50.74,46.52 L50.74,46.52L50.74,46.52z M58.45,28.3c0.63-2.05,0.34-3.8-2.02-6.4l-5.77-6.94c-0.82-0.96-2.75,0.45-1.94,1.62l4.61,5.69 c0.87,1.06-0.75,2.46-1.65,1.37l-4.77-5.88c-0.89-1.02-2.73,0.33-1.8,1.49c1.34,1.62,3.43,4.26,4.77,5.88 c0.93,0.95-0.48,2.35-1.41,1.17l-4.74-5.84c-0.7-0.76-1.83-0.29-2.13,0.6c-0.32,0.94,0.47,1.63,1.02,2.33l5.29,6.83 c1.64,1.9,3.48,3.03,5.61,2.39c0.33-0.1,0.73-0.3,1.16-0.56l14.21,18.34c0.76,0.99,2.24,1.09,3.2,0.3l0.22-0.18 c1.08-0.9,1.25-2.54,0.33-3.6L57.58,29.6C58.02,29.12,58.34,28.65,58.45,28.3L58.45,28.3L58.45,28.3z M62.47,32.3l2.34-2.84 C61.8,22,72.95,12.06,78.36,16.63c6.57,5.56-3.19,18.95-10.05,15.64l-2.77,3.52L62.47,32.3L62.47,32.3L62.47,32.3z"/></g></svg>
